X:39
T:Black Nag
M:3/4
L:1/4
Q:1/4=270
K:D
%%MIDI channel 1
%%MIDI program 72
%%MIDI transpose 8
%%MIDI grace 1/8
%%MIDI ratio 3 1
|:F|B>cB|c>Bc|d>cd|cde|f>ed|c>Bc|1 (B3|B2):|2 (B3|B2) B|
|:c.A.F|c.A.F|c.A.F|c.A.F|f.d.B|f.d.B|f.d.B|f.d.B|
c.A.F|c.A.F|c.A.F|(c2 c/)d//e//|f>ed|c>Bc|B3-|1 BzB:|2 B2||

